svg/shopping_music.svg

<svg xmlns="http://www.w3.org/2000/svg" viewBox="0 0 24 24"><path d="M12 3a3 3 0 0 0-3 3h6a3 3 0 0 0-3-3m7 3a2 2 0 0 1 2 2v12a2 2 0 0 1-2 2H5a2 2 0 0 1-2-2V8c0-1.11.89-2 2-2h2a5 5 0 0 1 5-5 5 5 0 0 1 5 5zM9 19l7.5-5L9 10z"/></svg>

<?xml version="1.0" encoding="UTF-8"?><!DOCTYPE svg PUBLIC "-//W3C//DTD SVG 1.1//EN" "http://www.w3.org/Graphics/SVG/1.1/DTD/svg11.dtd"><svg xmlns="http://www.w3.org/2000/svg" xmlns:xlink="http://www.w3.org/1999/xlink" version="1.1" id="mdi-shopping-music" width="24" height="24" viewBox="0 0 24 24"><path d="M12,3A3,3 0 0,0 9,6H15A3,3 0 0,0 12,3M19,6A2,2 0 0,1 21,8V20A2,2 0 0,1 19,22H5C3.89,22 3,21.1 3,20V8C3,6.89 3.89,6 5,6H7A5,5 0 0,1 12,1A5,5 0 0,1 17,6H19M9,19L16.5,14L9,10V19Z" /></svg>
